X:1
T:Golden Hill, SM
T:Golden Hill, SM
T:Ananias Davisson, The Kentucky Harmony, 1816
T:Public Domain Courtesy of the Cyber Hymnal™
C:Ananias Davisson, The Kentucky Harmony, 1816
Z:Public Domain
Z:Courtesy of the Cyber Hymnal™
%%score ( 1 2 ) ( 3 4 )
L:1/8
Q:1/4=115
M:3/4
K:Eb
V:1 treble 
V:2 treble 
V:3 bass 
V:4 bass 
V:1
 [B,E]2 | [B,G]4 (FE) | (C3 E) [DF]2 | E4 [EB]2 | [Ec]4 (Bc) | [Ge]4 (cB) | [DB]4 [EB]2 | %7
 [Ec]4 (Bc) | [Ge]4 [Ec]2 | [DB]4 (GE) | [DF]4 [B,E]2 | [B,G]4 (FE) | (C3 F) [DF]2 | E4 |] %14
V:2
 x2 | x4 B,2 | C4 x2 | E4 x2 | x4 E2 | x4 E2 | x6 | x4 E2 | x6 | x4 C2 | x6 | x4 B,2 | C4 x2 | %13
 E4 |] %14
V:3
 [E,G,]2 | E,4 [G,,E,]2 | [A,,A,]4 [B,,F,]2 | [E,G,]4 [E,G,]2 | [E,A,]4 (G,A,) | [E,B,]4 (A,G,) | %6
 [B,,F,]4 [E,G,]2 | [E,A,]4 (G,A,) | [E,B,]4 [A,,A,]2 | [B,,F,]4 [B,,E,]2 | [B,,B,]4 [E,G,]2 | %11
 E,4 [G,,E,]2 | [A,,A,]4 [B,,F,]2 | [E,G,]4 |] %14
V:4
 x2 | E,4 x2 | x6 | x6 | x4 E,2 | x4 A,,2 | x6 | x4 E,2 | x6 | x6 | x6 | E,4 x2 | x6 | x4 |] %14

